contributed-vectors/androtainer.svg

<?xml version="1.0" encoding="UTF-8" standalone="no"?>
<svg
   xmlns:dc="http://purl.org/dc/elements/1.1/"
   xmlns:cc="http://creativecommons.org/ns#"
   xmlns:rdf="http://www.w3.org/1999/02/22-rdf-syntax-ns#"
   xmlns:svg="http://www.w3.org/2000/svg"
   xmlns="http://www.w3.org/2000/svg"
   xmlns:sodipodi="http://sodipodi.sourceforge.net/DTD/sodipodi-0.dtd"
   xmlns:inkscape="http://www.inkscape.org/namespaces/inkscape"
   viewBox="0 0 192 192"
   version="1.1"
   id="svg16"
   sodipodi:docname="androtainer.svg"
   inkscape:version="0.92.4 (5da689c313, 2019-01-14)">
  <metadata
     id="metadata20">
    <rdf:RDF>
      <cc:Work
         rdf:about="">
        <dc:format>image/svg+xml</dc:format>
        <dc:type
           rdf:resource="http://purl.org/dc/dcmitype/StillImage" />
        <dc:title></dc:title>
      </cc:Work>
    </rdf:RDF>
  </metadata>
  <sodipodi:namedview
     pagecolor="#ffffff"
     bordercolor="#666666"
     borderopacity="1"
     objecttolerance="10"
     gridtolerance="10"
     guidetolerance="10"
     inkscape:pageopacity="0"
     inkscape:pageshadow="2"
     inkscape:window-width="1920"
     inkscape:window-height="1017"
     id="namedview18"
     showgrid="true"
     inkscape:zoom="3.4766083"
     inkscape:cx="77.132852"
     inkscape:cy="102.21939"
     inkscape:window-x="-8"
     inkscape:window-y="-8"
     inkscape:window-maximized="1"
     inkscape:current-layer="svg16"
     inkscape:snap-global="false">
    <inkscape:grid
       type="xygrid"
       id="grid827"
       spacingx="4"
       spacingy="4" />
  </sodipodi:namedview>
  <defs
     id="defs4">
    <style
       id="style2">.a{fill:none;stroke:#b1b5bd;stroke-linecap:round;stroke-linejoin:round;isolation:isolate;opacity:0.63;}</style>
  </defs>
  <path
     style="opacity:1;vector-effect:none;fill:#96dfd3;fill-opacity:1;fill-rule:evenodd;stroke:none;paint-order:stroke fill markers"
     d="M 114,20 C 95.836795,20 80.439296,31.41407 74.556641,47.490234 70.530245,42.895959 64.616996,40 58,40 45.812,40 36,49.812 36,62 c 0,2.138103 0.307318,4.200627 0.871094,6.152344 C 20.622642,69.715493 8,83.328182 8,100 8,112.64962 15.269561,123.53521 25.873047,128.73633 22.166046,131.94064 20,135.81527 20,140 c 0,11.08 15.164,20 34,20 4.683707,0 9.140419,-0.55166 13.193359,-1.55078 C 73.493382,166.41964 88.454019,172 106,172 c 23.268,0 42,-9.812 42,-22 0,-2.27267 -0.65464,-4.46226 -1.86523,-6.52148 C 147.98846,143.81698 149.95707,144 152,144 c 11.08,0 20,-5.352 20,-12 0,-1.44142 -0.44117,-2.81552 -1.21094,-4.09375 C 178.8612,121.31516 184,111.28118 184,100 184,82.770278 172.01335,68.451901 155.89258,64.871094 155.95616,63.921587 156,62.966165 156,62 156,38.732 137.268,20 114,20 Z"
     id="rect829"
     inkscape:connector-curvature="0"
     sodipodi:nodetypes="scsscscsscsscsscscss" />
  <path
     style="fill:#56595b;stroke:none;stroke-width:1px;stroke-linecap:butt;stroke-linejoin:miter;stroke-opacity:1"
     d="m 120.51976,82.266615 c -3.02127,4.601206 -4.45837,8.341463 -4.45837,8.341463 0,0 -6.91828,2.597874 -9.34819,8.844827 4.20724,-2.978127 7.91001,-3.955003 7.91001,-3.955003 0,0 -0.70246,5.567668 -0.28764,10.067278 7.57882,4.75097 26.46257,11.93693 26.46257,11.93693 0,0 9.86119,-28.132422 39.40623,-26.750214 -22.9915,9.831634 -24.3053,26.031114 -24.3053,26.031114 0,0 -3.24835,0.87564 -5.60892,2.73255 1.43953,0.98276 4.74601,0.86291 4.74601,0.86291 0,0 2.70276,14.12135 10.49874,22.86712 -15.48755,-2.22121 -23.15475,-14.95711 -23.15475,-14.95711 0,0 -10.87587,1.3226 -19.41548,7.91001 -7.45701,5.7523 -15.96383,8.05382 -15.96383,8.05382 0,0 2.09694,6.71849 8.6291,12.5122 -8.61902,0.90526 -17.402022,-3.73928 -17.402022,-3.73928 0,0 1.110204,1.91449 2.301092,3.02019 -13.049035,0.35178 -19.703109,-10.64256 -19.703109,-10.64256 l -6.471825,-2.44491 c 0,0 15.047337,-11.34747 10.211101,-21.42893 -3.562653,1.02995 -10.616692,11.08903 -17.173953,10.57575 -31.601422,-2.47367 -34.313008,-15.17794 -34.313008,-15.17794 0,0 0.04327,-5.66789 26.318754,-14.09419 18.539696,-5.945507 29.770394,-6.32801 29.770394,-6.32801 0,0 9.408265,-12.257 31.352396,-14.238015 z"
     id="path844"
     inkscape:connector-curvature="0"
     sodipodi:nodetypes="ccccccccccccscccccccscscc" />
  <rect
     style="opacity:1;vector-effect:none;fill:#56595b;fill-opacity:1;fill-rule:evenodd;stroke:none;paint-order:stroke fill markers"
     id="rect846"
     width="18.61017"
     height="16.779659"
     x="40.747036"
     y="71.99369"
     ry="2.5423729"
     transform="rotate(-11.045458)" />
  <rect
     style="opacity:1;vector-effect:none;fill:#56595b;fill-opacity:1;fill-rule:evenodd;stroke:none;paint-order:stroke fill markers"
     id="rect846-1"
     width="18.61017"
     height="16.779659"
     x="37.312164"
     y="93.122643"
     ry="2.5423729"
     transform="rotate(-13.085609)" />
  <rect
     style="opacity:1;vector-effect:none;fill:#56595b;fill-opacity:1;fill-rule:evenodd;stroke:none;paint-order:stroke fill markers"
     id="rect846-9"
     width="18.61017"
     height="16.779659"
     x="-0.6904791"
     y="97.934845"
     ry="2.5423729"
     transform="rotate(-21.652051)" />
  <rect
     style="opacity:1;vector-effect:none;fill:#56595b;fill-opacity:1;fill-rule:evenodd;stroke:none;paint-order:stroke fill markers"
     id="rect846-19"
     width="18.61017"
     height="16.779659"
     x="120.90857"
     y="14.978017"
     ry="2.5423729"
     transform="rotate(12.59675)" />
  <rect
     style="opacity:1;vector-effect:none;fill:#56595b;fill-opacity:1;fill-rule:evenodd;stroke:none;paint-order:stroke fill markers"
     id="rect846-0"
     width="18.61017"
     height="16.779659"
     x="151.54024"
     y="33.111866"
     ry="2.5423729"
     transform="rotate(23.170064)" />
  <rect
     style="opacity:1;vector-effect:none;fill:#56595b;fill-opacity:1;fill-rule:evenodd;stroke:none;paint-order:stroke fill markers"
     id="rect846-6"
     width="18.61017"
     height="16.779659"
     x="120.63992"
     y="34.271252"
     ry="2.5423729"
     transform="rotate(12.766772)" />
  <rect
     style="opacity:1;vector-effect:none;fill:#56595b;fill-opacity:1;fill-rule:evenodd;stroke:none;paint-order:stroke fill markers"
     id="rect846-66"
     width="18.61017"
     height="16.779659"
     x="81.86441"
     y="58.067791"
     ry="2.5423729" />
  <path
     style="opacity:1;vector-effect:none;fill:#56595b;fill-opacity:1;fill-rule:evenodd;stroke:none;paint-order:stroke fill markers"
     d="M 84 78.203125 C 82.591525 78.203125 81.457031 79.337619 81.457031 80.746094 L 81.457031 92.441406 C 81.457031 93.849881 82.591525 94.982422 84 94.982422 L 85.632812 94.982422 C 86.44321 94.067549 89.158288 91.099582 93.050781 87.966797 C 95.233871 86.209786 98.086554 84.681152 100.06836 83.699219 L 100.06836 80.746094 C 100.06836 79.337619 98.933865 78.203125 97.525391 78.203125 L 84 78.203125 z "
     id="rect846-8" />
</svg>

<svg xmlns="http://www.w3.org/2000/svg" id="svg16" version="1.1" viewBox="0 0 192 192"><defs id="defs4"><style id="style2">.a{fill:none;stroke:#b1b5bd;stroke-linecap:round;stroke-linejoin:round;isolation:isolate;opacity:.63}</style></defs><path id="rect829" d="M114 20a41.907 41.907 0 0 0-39.443 27.49A21.93 21.93 0 0 0 58 40c-12.188 0-22 9.812-22 22 0 2.138.307 4.2.871 6.152C20.623 69.715 8 83.328 8 100c0 12.65 7.27 23.535 17.873 28.736C22.166 131.941 20 135.816 20 140c0 11.08 15.164 20 34 20 4.684 0 9.14-.552 13.193-1.55C73.493 166.42 88.454 172 106 172c23.268 0 42-9.812 42-22 0-2.273-.655-4.462-1.865-6.521 1.853.338 3.822.521 5.865.521 11.08 0 20-5.352 20-12 0-1.441-.441-2.816-1.21-4.094A35.891 35.891 0 0 0 184 100c0-17.23-11.987-31.548-28.107-35.129.063-.95.107-1.905.107-2.871 0-23.268-18.732-42-42-42Z" style="opacity:1;vector-effect:none;fill:#96dfd3;fill-opacity:1;fill-rule:evenodd;stroke:none;paint-order:stroke fill markers"/><path id="path844" d="M120.52 82.267c-3.022 4.6-4.459 8.341-4.459 8.341s-6.918 2.598-9.348 8.845c4.207-2.978 7.91-3.955 7.91-3.955s-.702 5.568-.287 10.067c7.578 4.751 26.462 11.937 26.462 11.937s9.861-28.132 39.406-26.75c-22.991 9.832-24.305 26.031-24.305 26.031s-3.248.876-5.609 2.733c1.44.982 4.746.862 4.746.862s2.703 14.122 10.499 22.868c-15.488-2.222-23.155-14.958-23.155-14.958s-10.876 1.323-19.415 7.91c-7.457 5.753-15.964 8.054-15.964 8.054s2.097 6.719 8.629 12.513c-8.62.905-17.402-3.74-17.402-3.74s1.11 1.915 2.301 3.02c-13.049.352-19.703-10.642-19.703-10.642l-6.472-2.445s15.047-11.348 10.211-21.429c-3.562 1.03-10.617 11.09-17.174 10.576-31.601-2.474-34.313-15.178-34.313-15.178s.043-5.668 26.319-14.094c18.54-5.946 29.77-6.328 29.77-6.328s9.409-12.257 31.353-14.238z" style="fill:#56595b;stroke:none;stroke-width:1px;stroke-linecap:butt;stroke-linejoin:miter;stroke-opacity:1"/><rect id="rect846" width="18.61" height="16.78" x="40.747" y="71.994" ry="2.542" style="opacity:1;vector-effect:none;fill:#56595b;fill-opacity:1;fill-rule:evenodd;stroke:none;paint-order:stroke fill markers" transform="rotate(-11.045)"/><rect id="rect846-1" width="18.61" height="16.78" x="37.312" y="93.123" ry="2.542" style="opacity:1;vector-effect:none;fill:#56595b;fill-opacity:1;fill-rule:evenodd;stroke:none;paint-order:stroke fill markers" transform="rotate(-13.086)"/><rect id="rect846-9" width="18.61" height="16.78" x="-.69" y="97.935" ry="2.542" style="opacity:1;vector-effect:none;fill:#56595b;fill-opacity:1;fill-rule:evenodd;stroke:none;paint-order:stroke fill markers" transform="rotate(-21.652)"/><rect id="rect846-19" width="18.61" height="16.78" x="120.909" y="14.978" ry="2.542" style="opacity:1;vector-effect:none;fill:#56595b;fill-opacity:1;fill-rule:evenodd;stroke:none;paint-order:stroke fill markers" transform="rotate(12.597)"/><rect id="rect846-0" width="18.61" height="16.78" x="151.54" y="33.112" ry="2.542" style="opacity:1;vector-effect:none;fill:#56595b;fill-opacity:1;fill-rule:evenodd;stroke:none;paint-order:stroke fill markers" transform="rotate(23.17)"/><rect id="rect846-6" width="18.61" height="16.78" x="120.64" y="34.271" ry="2.542" style="opacity:1;vector-effect:none;fill:#56595b;fill-opacity:1;fill-rule:evenodd;stroke:none;paint-order:stroke fill markers" transform="rotate(12.767)"/><rect id="rect846-66" width="18.61" height="16.78" x="81.864" y="58.068" ry="2.542" style="opacity:1;vector-effect:none;fill:#56595b;fill-opacity:1;fill-rule:evenodd;stroke:none;paint-order:stroke fill markers"/><path id="rect846-8" d="M84 78.203a2.538 2.538 0 0 0-2.543 2.543v11.695A2.536 2.536 0 0 0 84 94.982h1.633c.81-.914 3.525-3.882 7.418-7.015 2.183-1.757 5.036-3.286 7.017-4.268v-2.953a2.538 2.538 0 0 0-2.543-2.543H84z" style="opacity:1;vector-effect:none;fill:#56595b;fill-opacity:1;fill-rule:evenodd;stroke:none;paint-order:stroke fill markers"/></svg>
